X: 14250
T: Furze In Bloom, The
R: jig
M: 6/8
K: Edorian
f|:edB BAB|def e2f|edB BAF|AFE E2f|
edB BAB|gfe ~f3|edB BAF|1 AFE E2f:|2 AFE Bcd||
e3 efg|edB d2A|ded dfa|b2a faf|
~e3 efg|edB d2f|edB BAF|1 AFE Bcd:|2 AFE E2f||

